%               
%     ^
%     | y        
%     |         
%   3 |--------- 2  
%     |        |
%     |        |
%     |        |
%     |--------|-----> x
%    0         1
%    
     
% draw a square
beginfig(1);
    %      0      1       2        3       4
    % draw (0,0)--(10,0)--(10,10)--(0,10)--(0,0);
    draw (0,0)--(3cm,0)--(2cm,1cm)--(0,1cm)--(0,0);
endfig;
end;
